src/raw/hiking/icon_32.svg

<svg width="32" height="32" viewBox="0 0 32 32" fill="none" xmlns="http://www.w3.org/2000/svg">
<path d="M7.13637 1.20797C7.45026 1.36367 7.71772 1.5991 7.912 1.89069L9.5 4L11.0413 2.98536C11.3281 2.78987 11.5394 2.59484 11.8406 2.49788C12.1419 2.40091 12.4618 2.37682 12.7742 2.42758C13.0866 2.47834 13.3825 2.6025 13.6375 2.78987C13.8926 2.97723 14.0995 3.22245 14.2413 3.50536L17 9.02269H1L4.45867 2.10536C4.61533 1.79195 4.85159 1.52521 5.14377 1.33183C5.43595 1.13845 5.77381 1.02523 6.12351 1.00349C6.47322 0.981749 6.82249 1.05226 7.13637 1.20797Z" stroke="#71717A" stroke-width="1.5" stroke-linecap="round" stroke-linejoin="round"/>
<path d="M27 4L23 15H31L27 4Z" stroke="#71717A" stroke-width="1.5" stroke-linecap="round" stroke-linejoin="round"/>
<path d="M27 15V19" stroke="#71717A" stroke-width="1.5" stroke-linecap="round" stroke-linejoin="round"/>
<path d="M5 16L1 27H9L5 16Z" stroke="#71717A" stroke-width="1.5" stroke-linecap="round" stroke-linejoin="round"/>
<path d="M5 27V31" stroke="#71717A" stroke-width="1.5" stroke-linecap="round" stroke-linejoin="round"/>
<path d="M26 26.2667C26.7882 27.0217 27.3709 27.9652 27.6933 29.008" stroke="#71717A" stroke-width="1.5" stroke-linecap="round" stroke-linejoin="round"/>
<path d="M20 23.7974C20.32 23.8747 20.652 23.9427 20.9987 24C21.6813 24.1106 22.3534 24.2783 23.008 24.5014" stroke="#71717A" stroke-width="1.5" stroke-linecap="round" stroke-linejoin="round"/>
<path d="M14.2666 19.556C14.6973 20.4134 15.2853 21.1823 15.9999 21.8226" stroke="#71717A" stroke-width="1.5" stroke-linecap="round" stroke-linejoin="round"/>
<path d="M13.0001 13C12.9976 13.7793 13.0363 14.5581 13.1161 15.3333" stroke="#71717A" stroke-width="1.5" stroke-linecap="round" stroke-linejoin="round"/>
</svg>

<svg xmlns="http://www.w3.org/2000/svg" width="32" height="32" fill="none" viewBox="0 0 32 32">
  <path stroke="#3F3F46" stroke-linecap="round" stroke-linejoin="round" stroke-width="2"
    d="M7.137 1.208a2 2 0 0 1 .775.683l1.663 2.498 1.467-1.404a2 2 0 0 1 3.2.52L17 9.023H1l3.46-6.918a2 2 0 0 1 2.677-.897ZM27 4l-4 11h8L27 4ZM27 15v4M5 16 1 27h8L5 16ZM5 27v4M26 26.267a6.424 6.424 0 0 1 1.694 2.74M20 23.798c.32.077.652.145 1 .202.682.11 1.354.279 2.009.502M14.267 19.556A7.66 7.66 0 0 0 16 21.823M13 13c-.002.78.037 1.558.117 2.333" />
</svg>
